src/assets/icons/months,simple,april-4.svg

<svg width="48" height="48" viewBox="0 0 48 48" fill="none" xmlns="http://www.w3.org/2000/svg">
<rect opacity="0.2" x="5" y="5" width="38" height="38" rx="4" fill="black"/>
<path d="M5 13C5 9.22876 5 7.34315 6.17157 6.17157C7.34315 5 9.22876 5 13 5H35C38.7712 5 40.6569 5 41.8284 6.17157C43 7.34315 43 9.22876 43 13V15H5V13Z" fill="black"/>
<path d="M10.603 35L11.4666 32.3466H15.6655L16.5291 35H19.1655L15.1541 23.3636H11.9837L7.96662 35H10.603ZM12.0916 30.4261L13.5234 26.0227H13.6143L15.0462 30.4261H12.0916ZM20.5661 35H23.0263V31.2273H25.0945C27.7706 31.2273 29.3274 29.6307 29.3274 27.3068C29.3274 24.9943 27.799 23.3636 25.157 23.3636H20.5661V35ZM23.0263 29.2557V25.375H24.6854C26.1058 25.375 26.7933 26.1477 26.7933 27.3068C26.7933 28.4602 26.1058 29.2557 24.6967 29.2557H23.0263ZM30.9254 35H33.3857V30.875H35.1811L37.3857 35H40.1016L37.63 30.4773C38.9538 29.9091 39.6868 28.7557 39.6868 27.1648C39.6868 24.8523 38.1584 23.3636 35.5163 23.3636H30.9254V35ZM33.3857 28.8977V25.375H35.0447C36.4652 25.375 37.1527 26.0057 37.1527 27.1648C37.1527 28.3182 36.4652 28.8977 35.0561 28.8977H33.3857Z" fill="black"/>
</svg>

<svg xmlns="http://www.w3.org/2000/svg" width="48" height="48" fill="none" viewBox="0 0 48 48">
  <rect width="38" height="38" x="5" y="5" fill="#000" opacity=".2" rx="4"/>
  <path fill="#000" d="M5 13c0-3.771 0-5.657 1.172-6.828C7.343 5 9.229 5 13 5h22c3.771 0 5.657 0 6.828 1.172C43 7.343 43 9.229 43 13v2H5v-2zM10.603 35l.864-2.653h4.198L16.53 35h2.637l-4.012-11.636h-3.17L7.967 35h2.636zm1.489-4.574l1.431-4.403h.091l1.432 4.403h-2.954zM20.566 35h2.46v-3.773h2.069c2.676 0 4.232-1.596 4.232-3.92 0-2.313-1.528-3.943-4.17-3.943h-4.59V35zm2.46-5.744v-3.881h1.66c1.42 0 2.107.773 2.107 1.932 0 1.153-.687 1.949-2.096 1.949h-1.67zm7.9 5.744h2.46v-4.125h1.795L37.386 35h2.716l-2.472-4.523c1.324-.568 2.057-1.721 2.057-3.312 0-2.313-1.529-3.801-4.17-3.801h-4.592V35zm2.46-6.102v-3.523h1.659c1.42 0 2.108.63 2.108 1.79 0 1.153-.688 1.733-2.097 1.733h-1.67z"/>
</svg>
